X:1
T: Dod Anerson
C:
R:Reel
Q: 232
K:D
M:4/4
L:1/8
|:D2 D2 F2 A2|d2 fe dA FD|G2 eG F2 dF|E2 ed dc BA|
D2 D2 F2 A2|d2 fe dA FE|G2 BG FB FD|A,2 C2 D2 c2|
d2 fe dA FD|d2 fe dA FD|e2 gf e2 gf|e2 gf ed cA|
d2 fe dA FD|d2 fe dA FD|G2 BG FA FD|A,2 C2 D4:|
